markets/APT.svg

<svg width="42" height="42" viewBox="0 0 42 42" fill="none" xmlns="http://www.w3.org/2000/svg">
<g clip-path="url(#clip0_7277_55415)">
<ellipse cx="21" cy="21" rx="21" ry="21" fill="white"/>
<path d="M32.5342 14.0497H28.818C28.3886 14.0497 27.9766 13.8664 27.6874 13.5436L26.1799 11.8506C25.952 11.5976 25.6365 11.4492 25.2947 11.4492C24.9528 11.4492 24.6373 11.5976 24.4094 11.8506L23.1123 13.3079C22.6916 13.7792 22.078 14.0584 21.447 14.0584H1.10434C0.525876 15.6902 0.148998 17.4268 0 19.2332H19.2033C19.5451 19.2332 19.8606 19.0935 20.0972 18.8492L21.8852 16.9905C22.1043 16.7549 22.4199 16.624 22.7354 16.624H22.8055C23.1473 16.624 23.4629 16.7723 23.6907 17.0254L25.1982 18.7183C25.4875 19.0412 25.8994 19.2244 26.3289 19.2244H42C41.851 17.4268 41.4741 15.6815 40.8957 14.041L32.5342 14.0497Z" fill="black"/>
<path d="M11.6219 30.1235C11.9638 30.1235 12.2793 29.9838 12.5159 29.7395L14.3039 27.8808C14.5318 27.6452 14.8386 27.5143 15.1628 27.5143H15.233C15.5748 27.5143 15.8991 27.6626 16.1182 27.907L17.6257 29.5999C17.9149 29.9228 18.3269 30.106 18.7563 30.106H40.0017C40.7993 28.4655 41.3778 26.7114 41.7284 24.8702H21.3331C20.9037 24.8702 20.4917 24.6869 20.2025 24.3641L18.695 22.6886C18.4671 22.4355 18.1516 22.2959 17.8098 22.2959C17.4679 22.2959 17.1436 22.4442 16.9245 22.6886L15.6274 24.1459C15.2067 24.6258 14.5931 24.8964 13.9533 24.8964H0.289307C0.639891 26.7376 1.21836 28.4916 2.01593 30.1322L11.6219 30.1235Z" fill="black"/>
<path d="M26.6881 8.38606C27.0299 8.38606 27.3454 8.24643 27.5821 8.0021L29.3701 6.14338C29.5892 5.90776 29.9047 5.77687 30.229 5.77687H30.2991C30.6409 5.77687 30.9564 5.92522 31.1843 6.17828L32.6918 7.87993C32.9811 8.2028 33.393 8.38606 33.8225 8.38606H37.863C34.0153 3.28985 27.8976 0 21.0086 0C14.1196 0 7.99317 3.28985 4.14551 8.38606H26.6881Z" fill="black"/>
<path d="M18.5805 35.3156H13.0588C12.6293 35.3156 12.2174 35.1324 11.9281 34.8095L10.4206 33.1166C10.1927 32.8635 9.8772 32.7239 9.53538 32.7239C9.19356 32.7239 8.86927 32.8722 8.65016 33.1166L7.35299 34.5739C6.93229 35.0538 6.31877 35.3243 5.67895 35.3243H5.59131C9.43897 39.4257 14.9168 42 21.0083 42C27.0997 42 32.5688 39.4257 36.4252 35.3243L18.5805 35.3156Z" fill="black"/>
</g>
<defs>
<clipPath id="clip0_7277_55415">
<rect width="42" height="42" rx="21" fill="white"/>
</clipPath>
</defs>
</svg>

<svg xmlns="http://www.w3.org/2000/svg" width="42" height="42" fill="none"><g clip-path="url(#a)"><circle cx="21" cy="21" r="21" fill="#fff"/><path fill="#000" d="M32.534 14.05h-3.716a1.52 1.52 0 0 1-1.13-.506L26.18 11.85a1.187 1.187 0 0 0-.885-.402c-.342 0-.658.149-.886.402l-1.297 1.457c-.42.471-1.034.75-1.665.75H1.104A20.53 20.53 0 0 0 0 19.233h19.203c.342 0 .658-.14.894-.384l1.788-1.858a1.17 1.17 0 0 1 .85-.367h.07c.342 0 .658.148.886.401l1.507 1.693c.29.323.701.506 1.13.506H42a20.764 20.764 0 0 0-1.104-5.183l-8.362.009ZM11.622 30.123c.342 0 .657-.14.894-.384l1.788-1.858a1.19 1.19 0 0 1 .859-.367h.07c.342 0 .666.149.885.393l1.508 1.693c.289.323.7.506 1.13.506h21.246a20.879 20.879 0 0 0 1.726-5.236H21.333a1.52 1.52 0 0 1-1.13-.506l-1.508-1.675a1.196 1.196 0 0 0-1.77 0l-1.298 1.457c-.42.48-1.034.75-1.674.75H.29a20.88 20.88 0 0 0 1.727 5.236l9.606-.009ZM26.688 8.386c.342 0 .657-.14.894-.384l1.788-1.859c.22-.235.535-.366.859-.366h.07c.342 0 .657.148.885.401l1.508 1.702c.29.323.701.506 1.13.506h4.041A21.067 21.067 0 0 0 21.009 0 21.084 21.084 0 0 0 4.146 8.386h22.542ZM18.58 35.316H13.06a1.52 1.52 0 0 1-1.13-.507l-1.508-1.692a1.196 1.196 0 0 0-1.77 0l-1.298 1.457c-.42.48-1.034.75-1.674.75h-.088A21.076 21.076 0 0 0 21.008 42c6.092 0 11.56-2.574 15.417-6.676l-17.844-.008Z"/></g><defs><clipPath id="a"><rect width="42" height="42" fill="#fff" rx="21"/></clipPath></defs></svg>
